SVG/sort-alpha-asc.svg

<?xml version="1.0" encoding="utf-8"?>
<!-- Generated by IcoMoon.io -->
<!DOCTYPE svg PUBLIC "-//W3C//DTD SVG 1.1//EN" "http://www.w3.org/Graphics/SVG/1.1/DTD/svg11.dtd">
<svg version="1.1" xmlns="http://www.w3.org/2000/svg" xmlns:xlink="http://www.w3.org/1999/xlink" width="13" height="14" viewBox="0 0 13 14">
<path fill="#444444" d="M9.305 3.188h1.383l-0.563-1.703-0.094-0.367q-0.016-0.125-0.016-0.156h-0.031l-0.023 0.156q0 0.008-0.027 0.141t-0.059 0.227zM5.75 11.25q0 0.094-0.078 0.187l-2.492 2.492q-0.078 0.070-0.18 0.070-0.094 0-0.18-0.070l-2.5-2.5q-0.117-0.125-0.055-0.273 0.062-0.156 0.234-0.156h1.5v-10.75q0-0.109 0.070-0.18t0.18-0.070h1.5q0.109 0 0.18 0.070t0.070 0.18v10.75h1.5q0.109 0 0.18 0.070t0.070 0.18zM12.281 12.18v1.82h-4.562v-0.703l2.883-4.133q0.094-0.141 0.164-0.211l0.086-0.070v-0.023q-0.016 0-0.051 0.004t-0.059 0.004q-0.094 0.023-0.234 0.023h-1.812v0.898h-0.937v-1.789h4.43v0.695l-2.883 4.141q-0.047 0.062-0.164 0.203l-0.086 0.086v0.016l0.109-0.016q0.070-0.016 0.234-0.016h1.937v-0.93h0.945zM12.977 5.172v0.828h-2.25v-0.828h0.586l-0.367-1.125h-1.898l-0.367 1.125h0.586v0.828h-2.242v-0.828h0.547l1.797-5.172h1.266l1.797 5.172h0.547z"></path>
</svg>

<svg xmlns="http://www.w3.org/2000/svg" viewBox="0 0 13 14"><path d="M9.305 3.188h1.383l-.563-1.703-.094-.367q-.015-.125-.015-.156h-.03l-.024.156q0 .008-.026.14t-.06.228zM5.75 11.25q0 .094-.078.187L3.18 13.93Q3.102 14 3 14q-.094 0-.18-.07l-2.5-2.5q-.117-.126-.055-.274Q.327 11 .5 11H2V.25q0-.11.07-.18T2.25 0h1.5q.108 0 .18.07T4 .25V11h1.5q.108 0 .18.07t.07.18zm6.53.93V14H7.72v-.703L10.6 9.164q.094-.14.164-.21l.086-.07V8.86q-.016 0-.05.004t-.06.004q-.094.023-.234.023H8.696v.9H7.76V8h4.43v.695l-2.884 4.14q-.047.063-.164.204l-.086.085v.016l.11-.015q.07-.016.233-.016h1.936v-.93h.945zm.697-7.008V6h-2.25v-.828h.586l-.367-1.125H9.048L8.68 5.172h.587V6H7.025v-.828h.547L9.37 0h1.265l1.797 5.172h.547z" /></svg>
